X: 836
T: Alberta Polka, The
R: barndance
M: 4/4
K: Dmajor
A,C|:"D"D2FA dAFD|"A"A,2CE "G"GECE|"A"A,2CE "G"GEAG|"D"FEDF "A"EDCE|
"D"D2FA dAFD|"A"A,2CE "G"GECE|"A"A,2CE "G"GECE|"D"ED D/D/D Dz "A"A,C:|
|:"D"D2FA dAFD|"G"[GB]zz [GB]"D" [FA]z[FA]2|"A"A,CEF "G"GEAG|"D"FEDF "A"EDCE|
"D"D2FA dAFD|"G"[GB]zz [GB]"D" [FA]z[FA]2|"A"A,CEF "G"GECE|1 "D"ED D/D/D Dz "A"A,C:|2 "D"ED D/D/D D4||

